dist/img/comunity/love.svg

<svg width="93" height="75" viewBox="0 0 93 75" fill="none" xmlns="http://www.w3.org/2000/svg">
<path d="M35.9351 19.4671C38.0799 18.3022 39.6443 18.3619 40.6284 19.6463C41.6126 20.9306 42.1436 22.0161 42.2214 22.9027C44.3129 28.5765 38.7327 38.1756 25.4807 51.6999C23.0908 60.0264 21.9839 65.2907 22.1601 67.4929C22.3273 69.6763 23.1702 69.9658 24.6889 68.3614C26.2077 66.757 27.6965 64.7281 29.1553 62.2747C30.633 59.8123 31.8242 58.8265 32.7289 59.3174C29.3678 66.1455 25.9331 70.5029 22.4247 72.3896C21.7082 72.8711 21.1328 72.7307 20.6988 71.9684C19.3374 68.2547 19.7696 62.6665 21.9955 55.2038L21.8202 54.8374C16.6388 59.1645 13.7919 61.3236 13.2795 61.3148C12.7582 61.2871 12.5746 60.8553 12.7289 60.0193C12.8929 59.1555 16.4195 55.9552 23.3084 50.4183C28.212 31.4658 32.4209 21.1488 35.9351 19.4671ZM27.2751 45.7486L28.1207 45.3439C37.2535 35.6154 41.3021 28.6315 40.2667 24.3923C39.7906 22.2875 38.9373 21.2523 37.7067 21.2869C36.4761 21.3215 34.83 23.5527 32.7685 27.9805C30.707 32.4083 28.8759 38.331 27.2751 45.7486ZM43.5194 44.8C48.3856 41.4551 51.4482 40.8326 52.707 42.9324C54.1791 44.5606 52.3438 48.5683 47.2013 54.9555C42.0588 61.3427 38.8159 64.8461 37.4726 65.4658C36.1293 66.0855 35.1525 66.2643 34.542 66.0021C33.9413 65.7122 33.4026 64.8036 32.9259 63.2765C35.122 54.3037 38.6532 48.1448 43.5194 44.8ZM35.6733 60.4027C34.9826 63.1583 35.8118 63.7085 38.1607 62.0532C40.5284 60.389 44.5301 55.3099 50.1657 46.816L50.5014 45.9972C50.6964 44.4257 49.7349 43.9851 47.617 44.6752C45.4991 45.3654 43.147 47.4725 40.5607 50.9967C37.9841 54.493 36.355 57.6284 35.6733 60.4027ZM65.2612 38.7609C64.792 37.8768 64.2374 37.3454 63.5975 37.1666C62.9984 36.2523 65.1368 34.3744 70.013 31.5329C71.4764 30.9712 72.278 30.9571 72.4178 31.4907C72.248 32.1494 71.2917 33.0227 69.549 34.1107C67.8063 35.1987 67.1445 36.012 67.5639 36.5504L67.8658 38.4845L65.2612 38.7609ZM64.9513 45.3529C63.5557 49.0001 61.4342 52.0478 58.587 54.4958C57.7545 55.2175 57.0918 55.5461 56.5991 55.4817C56.1161 55.3895 55.6858 54.9487 55.3081 54.1594L55.8082 48.6889C56.4014 45.1023 56.651 43.0659 56.557 42.5797C56.4539 42.0747 56.04 42.0303 55.3153 42.4464L51.8818 46.9995C51.3524 47.4376 50.9851 47.6595 50.78 47.6653C50.5749 47.6711 50.3645 47.4485 50.1486 46.9974C50.9267 44.0384 53.2186 41.1055 57.0242 38.1989L57.3061 38.064C58.124 37.6495 58.6784 37.6498 58.9694 38.0648C59.2702 38.4521 59.3586 38.9987 59.2345 39.7048C59.0076 40.9682 58.5961 44.0174 57.9998 48.8527C57.5087 52.4597 58.3259 52.6229 60.4514 49.3424C61.5093 47.9816 63.2081 44.3163 65.5479 38.3465L66.4953 37.7199C67.0902 37.8048 67.516 37.9706 67.7726 38.2173L67.1039 40.512C66.5968 42.3483 65.8793 43.9619 64.9513 45.3529ZM76.2356 29.7677C77.5002 28.308 78.966 27.341 80.6328 26.8667C82.2907 26.3736 83.5652 27.0339 84.4563 28.8478C85.6883 31.4224 81.5476 35.6557 72.034 41.5479C70.217 43.1564 69.5341 44.384 69.9854 45.2304C70.4554 46.0679 71.0925 46.4097 71.8965 46.2559C72.7104 46.0743 73.5393 45.8278 74.3833 45.5163C75.2372 45.177 78.0902 43.1996 82.9425 39.5843C87.7858 35.9502 90.2507 34.3202 90.3374 34.6944C90.4339 35.0409 88.2836 37.063 83.8866 40.7608C79.4993 44.4308 75.6498 46.908 72.3382 48.1925C69.9081 48.6163 68.473 47.8134 68.0329 45.7837L67.6514 44.4073L65.7628 45.311C65.3966 44.932 65.5182 44.3656 66.1277 43.6121C66.7469 42.8308 70.1162 38.216 76.2356 29.7677ZM74.6911 35.0105C70.0427 40.3067 70.6304 40.8107 76.454 36.5226C81.0105 32.7717 83.0683 30.4359 82.6277 29.515C82.187 28.5942 80.8976 28.7955 78.7594 30.1189L74.6911 35.0105Z" fill="white"/>
</svg>

<svg width="93" height="75" viewBox="0 0 93 75" fill="none" xmlns="http://www.w3.org/2000/svg"><path d="M35.935 19.467c2.145-1.165 3.71-1.105 4.693.18.985 1.284 1.516 2.37 1.593 3.256 2.092 5.674-3.488 15.273-16.74 28.797-2.39 8.326-3.497 13.59-3.32 15.793.166 2.183 1.01 2.473 2.528.868 1.519-1.604 3.008-3.633 4.466-6.086 1.478-2.463 2.67-3.448 3.574-2.958-3.361 6.828-6.796 11.186-10.304 13.073-.717.481-1.292.34-1.726-.422-1.362-3.713-.93-9.302 1.296-16.764l-.175-.367c-5.181 4.327-8.028 6.487-8.54 6.478-.522-.028-.705-.46-.551-1.296.164-.863 3.69-4.064 10.58-9.6 4.903-18.953 9.112-29.27 12.626-30.952zm-8.66 26.282l.846-.405c9.133-9.729 13.181-16.713 12.146-20.952-.476-2.104-1.33-3.14-2.56-3.105-1.23.035-2.877 2.266-4.938 6.694-2.062 4.427-3.893 10.35-5.494 17.768zM43.52 44.8c4.867-3.345 7.93-3.967 9.188-1.868 1.472 1.629-.363 5.636-5.506 12.023-5.142 6.388-8.385 9.891-9.728 10.51-1.344.62-2.32.8-2.931.537-.6-.29-1.14-1.198-1.616-2.725 2.196-8.973 5.727-15.132 10.593-18.477zm-7.846 15.603c-.69 2.755.139 3.306 2.488 1.65 2.367-1.664 6.37-6.743 12.005-15.237l.335-.819c.195-1.571-.766-2.012-2.884-1.322s-4.47 2.797-7.056 6.322c-2.577 3.496-4.206 6.631-4.888 9.406zM65.261 38.76c-.469-.884-1.024-1.416-1.663-1.594-.6-.915 1.539-2.793 6.415-5.634 1.463-.562 2.265-.576 2.405-.042-.17.658-1.126 1.532-2.869 2.62-1.743 1.088-2.405 1.901-1.985 2.44l.302 1.933-2.605.277zm-.31 6.592c-1.395 3.647-3.517 6.695-6.364 9.143-.833.721-1.495 1.05-1.988.986-.483-.093-.913-.533-1.29-1.323l.5-5.47c.592-3.587.842-5.623.748-6.11-.103-.504-.517-.549-1.242-.133L51.882 47c-.53.439-.897.66-1.102.666-.205.006-.416-.216-.631-.668.778-2.959 3.07-5.892 6.875-8.798l.282-.135c.818-.414 1.372-.414 1.663 0 .301.388.39.935.265 1.64-.226 1.264-.638 4.313-1.234 9.149-.491 3.607.326 3.77 2.451.49 1.058-1.361 2.757-5.027 5.097-10.997l.947-.626c.595.085 1.021.25 1.278.497l-.67 2.295c-.506 1.836-1.224 3.45-2.152 4.84zm11.285-15.585c1.264-1.46 2.73-2.427 4.397-2.901 1.658-.493 2.932.167 3.823 1.98 1.232 2.575-2.908 6.809-12.422 12.7-1.817 1.61-2.5 2.837-2.049 3.683.47.838 1.108 1.18 1.912 1.026a19.369 19.369 0 002.486-.74c.854-.339 3.707-2.316 8.56-5.932 4.843-3.634 7.308-5.264 7.394-4.89.097.347-2.053 2.369-6.45 6.067-4.388 3.67-8.237 6.147-11.549 7.431-2.43.424-3.865-.379-4.305-2.408l-.382-1.377-1.888.904c-.366-.379-.245-.945.365-1.699.619-.781 3.988-5.396 10.108-13.844zM74.69 35.01c-4.648 5.297-4.06 5.8 1.763 1.513 4.556-3.751 6.614-6.087 6.174-7.008-.441-.92-1.73-.72-3.869.604l-4.068 4.892z" fill="#fff"/></svg>
